X:1
T:Title
%%score { ( 1 4 ) | ( 2 3 ) }
L:1/8
M:4/4
K:Eb
V:1 treble nm="Grand Piano"
V:4 treble 
V:2 bass 
V:3 bass 
V:1
 z4 z2[Q:1/4=100] E2 | G2 FE A2 GF | B3 c B2 G2 | [DF]2 [DF]2 [CE]2 [DF]2 |[M:3/4] [EG]6 | %5
[M:1/4] [EG][FA] |[M:4/4] [GB]2 [GB]2 [Ge]2 [Bd]2 | [Ac]4 [GB]2 G2 | G2 F2 c3 [DB] |[M:3/4] [DB]6 | %10
[M:1/4] [GB]2 |[M:4/4] [GB]2 [FA][=EG] [GB]2 [FA][EG] | [GB]4 [FA]2 [FA]2 | %13
 [FA]2 [EG][DF] [FA]2 [EG]F |[M:3/4] G6 |[M:1/4] GA |[M:4/4] [GB]2 [GB]2 [Ge][Bd][Ac]B | %17
 c3 e [EGB]2 [EAc]2 | [EGB]2 [B,E][CFA] [EG]2 [A,DF]2 |[M:3/4] [G,E]6 |] %20
V:2
 z4 z2 [E,G,]2 | [E,B,E]2 [A,E]G, [E,CE]2 CA, | G,3 A, [E,G,E]2 [E,B,E]2 | %3
 [B,,B,]2 [B,,A,]2 [C,G,]2 [B,,B,]2 |[M:3/4] [E,B,]6 |[M:1/4] [E,B,]2 | %6
[M:4/4] [E,E]2 [E,E]2 [E,B,]2 [E,E]2 | [E,E]4 [E,E]2 [E,B,E]2 | %8
 [F,B,E]2 [F,B,D]2 [F,=A,E]3 [B,,B,] |[M:3/4] [B,,B,]6 |[M:1/4] [E,B,]2 | %11
[M:4/4] [C,C]2 [C,C]2 [C,C]2 [C,C]2 | [F,C]4 [F,C]2 [F,C]2 | [B,,B,]2 [B,,B,]2 [B,,B,]2 z D | %14
[M:3/4] [E,B,E]6 |[M:1/4] EF |[M:4/4] [E,E]2 [E,E]2 [E,B,]2 z G | A,,3 C, E,2 E,2 | %18
 E,2 G,A, B,2 B,,2 |[M:3/4] E,6 |] %20
V:3
 x8 | z2 E,2 z2 [E,E]2 | [E,E]4 z4 | x8 |[M:3/4] x6 |[M:1/4] x2 |[M:4/4] x8 | x8 | x8 |[M:3/4] x6 | %10
[M:1/4] x2 |[M:4/4] x8 | x8 | z4 z2 [B,,B,]2 |[M:3/4] x6 |[M:1/4] [E,B,]2 |[M:4/4] z4 z2 [E,E]2 | %17
 x8 | x8 |[M:3/4] x6 |] %20
V:4
 x8 | x8 | x8 | x8 |[M:3/4] x6 |[M:1/4] x2 |[M:4/4] x8 | x8 | x8 |[M:3/4] x6 |[M:1/4] x2 | %11
[M:4/4] x8 | x8 | x8 |[M:3/4] x6 |[M:1/4] x2 |[M:4/4] x8 | [EA]4 z4 | x8 |[M:3/4] x6 |] %20

